chart-bell-curve-cumulative.svg

<svg fill="currentColor" viewBox="0 0 24 24"><path d="M4 19v1h18v2H2V2h2v15c3 0 6-2 8.1-5.6 3-5 6.3-7.4 9.9-7.4v2c-2.8 0-5.5 2.1-8.1 6.5C11.3 16.6 7.7 19 4 19"/></svg>

<svg  viewBox="0 0 24 24" fill="currentColor"><path  d="M4 19V20H22V22H2V2H4V17C7 17 10 15 12.1 11.4C15.1 6.4 18.4 4 22 4V6C19.2 6 16.5 8.1 13.9 12.5C11.3 16.6 7.7 19 4 19Z"/></svg>
